;FLAVOR:UltiGCode
;TIME:2156
;MATERIAL:6225
;MATERIAL2:0

;Layer count: 37
;LAYER:0
M107
G0 F10500 X83.835 Y103.763 Z0.300
;TYPE:SKIRT
G1 F900 X102.304 Y103.763 E3.46294
G1 X102.264 Y102.715 E3.65958
G1 X102.225 Y101.743 E3.84198
G1 X102.194 Y100.736 E4.03088
G1 X102.164 Y99.820 E4.20272
G1 X102.142 Y98.873 E4.38033
G1 X102.121 Y98.011 E4.54200
G1 X102.107 Y97.116 E4.70984
G1 X102.092 Y96.301 E4.86268
G1 X102.084 Y95.519 E5.00931
G1 X102.075 Y94.671 E5.16832
G1 X102.071 Y93.917 E5.30969
G1 X102.066 Y93.100 E5.46289
G1 X102.066 Y92.362 E5.60126
G1 X102.064 Y91.580 E5.74789
G1 X102.064 Y90.857 E5.88345
G1 X102.058 Y86.143 E6.76732
G1 X124.043 Y86.143 E10.88951
G1 X124.043 Y86.135 E10.89101
G1 X128.482 Y86.144 E11.72333
G1 X128.761 Y86.143 E11.77564
G1 X128.984 Y86.144 E11.81745
G1 X129.254 Y86.143 E11.86808
G1 X129.772 Y86.144 E11.96520
G1 X130.192 Y86.145 E12.04395
G1 X130.493 Y86.144 E12.10039
G1 X130.711 Y86.145 E12.14127
G1 X131.016 Y86.144 E12.19845
G1 X131.233 Y86.145 E12.23914
G1 X131.552 Y86.144 E12.29895
G1 X131.776 Y86.145 E12.34095
G1 X132.465 Y86.144 E12.47014
G1 X132.679 Y86.145 E12.51027
G1 X133.043 Y86.144 E12.57852
G1 X134.204 Y86.146 E12.79621
G1 X134.471 Y86.145 E12.84627
G1 X134.580 Y86.145 E12.86671
G1 X134.581 Y86.138 E12.86803
G1 X135.853 Y86.140 E13.10653
G1 X139.390 Y86.033 E13.77002
G1 X139.399 Y86.146 E13.79128
G1 X139.699 Y86.145 E13.84753
G1 X140.339 Y86.146 E13.96753
G1 X140.738 Y86.144 E14.04234
G1 X140.960 Y86.145 E14.08397
G1 X141.331 Y86.144 E14.15353
G1 X141.552 Y86.145 E14.19497
G1 X142.241 Y86.144 E14.32415
G1 X142.457 Y86.145 E14.36466
G1 X142.774 Y86.144 E14.42409
G1 X142.992 Y86.145 E14.46497
G1 X143.295 Y86.144 E14.52178
G1 X143.514 Y86.145 E14.56284
G1 X143.800 Y86.144 E14.61647
G1 X144.216 Y86.145 E14.69447
G1 X144.517 Y86.143 E14.75091
G1 X144.745 Y86.144 E14.79366
G1 X145.020 Y86.143 E14.84522
G1 X145.243 Y86.144 E14.88703
G1 X145.510 Y86.143 E14.93710
G1 X145.739 Y86.144 E14.98004
G1 X149.954 Y86.128 E15.77035
G1 X149.932 Y91.293 E16.73880
G1 X149.931 Y92.331 E16.93343
G1 X149.926 Y93.546 E17.16124
G1 X149.925 Y94.587 E17.35643
G1 X149.921 Y95.823 E17.58818
G1 X149.920 Y96.881 E17.78655
G1 X149.916 Y98.148 E18.02412
G1 X149.915 Y99.223 E18.22568
G1 X149.915 Y100.337 E18.43455
G1 X149.912 Y101.644 E18.67962
G1 X149.911 Y102.792 E18.89487
G1 X149.909 Y104.147 E19.14893
G1 X149.906 Y108.008 E19.87287
G1 X149.906 Y109.490 E20.15074
G1 X149.907 Y111.048 E20.44287
G1 X149.906 Y112.372 E20.69112
G1 X149.909 Y113.987 E20.99393
G1 X149.908 Y115.374 E21.25399
G1 X149.912 Y117.042 E21.56675
G1 X149.911 Y118.483 E21.83693
G1 X149.916 Y120.188 E22.15662
G1 X149.915 Y121.680 E22.43637
G1 X149.915 Y123.193 E22.72006
G1 X149.921 Y124.940 E23.04762
G1 X149.920 Y126.498 E23.33975
G1 X149.926 Y128.262 E23.67050
G1 X149.925 Y129.845 E23.96731
G1 X149.932 Y131.619 E24.29994
G1 X149.931 Y133.220 E24.60013
G1 X149.950 Y138.937 E25.67207
G1 X124.052 Y138.937 E30.52795
G1 X124.064 Y134.666 E31.32876
G1 X123.772 Y135.151 E31.43491
G1 X122.860 Y136.135 E31.68647
G1 X121.812 Y136.860 E31.92540
G1 X121.028 Y137.277 E32.09190
G1 X120.428 Y137.564 E32.21661
G1 X119.708 Y137.877 E32.36382
G1 X118.914 Y138.206 E32.52497
G1 X117.931 Y138.454 E32.71505
G1 X117.078 Y138.643 E32.87887
G1 X116.133 Y138.791 E33.05822
G1 X115.189 Y138.851 E33.23558
G1 X114.885 Y138.856 E33.29258
G1 X113.901 Y138.795 E33.47744
G1 X112.922 Y138.643 E33.66320
G1 X112.102 Y138.461 E33.82069
G1 X111.328 Y138.268 E33.97026
G1 X111.005 Y138.179 E34.03308
G1 X110.280 Y137.873 E34.18063
G1 X109.571 Y137.564 E34.32564
G1 X108.970 Y137.277 E34.45052
G1 X108.211 Y136.871 E34.61191
G1 X107.563 Y136.436 E34.75825
G1 X107.082 Y136.073 E34.87124
G1 X106.217 Y135.139 E35.10993
G1 X105.710 Y134.281 E35.29679
G1 X105.399 Y133.527 E35.44972
G1 X105.124 Y132.535 E35.64274
G1 X104.982 Y131.868 E35.77060
G1 X104.864 Y131.263 E35.88618
G1 X104.759 Y130.704 E35.99282
G1 X104.628 Y129.989 E36.12912
G1 X104.483 Y129.146 E36.28950
G1 X104.326 Y128.178 E36.47337
G1 X104.210 Y127.427 E36.61585
G1 X104.092 Y126.585 E36.77527
G1 X103.911 Y125.199 E37.03735
G1 X103.835 Y124.572 E37.15578
G1 X103.724 Y123.609 E37.33753
G1 X103.646 Y122.868 E37.47724
G1 X103.537 Y121.827 E37.67349
G1 X103.482 Y121.237 E37.78460
G1 X83.841 Y121.237 E41.46729
G1 X83.838 Y115.496 E42.54372
G1 X83.839 Y114.991 E42.63841
G1 X83.838 Y113.496 E42.91872
G1 X83.839 Y112.991 E43.01341
G1 X83.838 Y111.497 E43.29354
G1 X83.839 Y110.992 E43.38822
G1 X83.838 Y109.497 E43.66854
G1 X83.839 Y109.041 E43.75404
G1 X83.835 Y103.763 E44.74366
G0 F10500 X84.461 Y104.388
G1 F900 X102.959 Y104.388 E48.21204
G1 X102.929 Y103.773 E48.32749
G1 X102.888 Y102.691 E48.53051
G1 X102.889 Y102.691 E48.53070
G1 X102.850 Y101.721 E48.71272
G1 X102.819 Y100.717 E48.90106
G1 X102.789 Y99.802 E49.07271
G1 X102.767 Y98.858 E49.24976
G1 X102.746 Y97.998 E49.41106
G1 X102.731 Y97.106 E49.57833
G1 X102.717 Y96.292 E49.73098
G1 X102.709 Y95.512 E49.87724
G1 X102.700 Y94.666 E50.03587
G1 X102.696 Y93.914 E50.17687
G1 X102.691 Y93.098 E50.32988
G1 X102.691 Y92.362 E50.46788
G1 X102.689 Y91.579 E50.61469
G1 X102.689 Y90.857 E50.75006
G1 X102.684 Y86.768 E51.51675
G1 X124.671 Y86.768 E55.63931
G1 X124.671 Y86.761 E55.64063
G1 X128.484 Y86.769 E56.35557
G1 X128.760 Y86.768 E56.40732
G1 X128.983 Y86.769 E56.44913
G1 X129.254 Y86.768 E56.49994
G1 X129.771 Y86.769 E56.59688
G1 X130.193 Y86.770 E56.67600
G1 X130.493 Y86.769 E56.73225
G1 X130.710 Y86.770 E56.77294
G1 X131.015 Y86.769 E56.83013
G1 X131.232 Y86.770 E56.87082
G1 X131.552 Y86.769 E56.93082
G1 X131.774 Y86.770 E56.97244
G1 X132.464 Y86.769 E57.10182
G1 X132.678 Y86.770 E57.14194
G1 X133.043 Y86.769 E57.21038
G1 X134.205 Y86.771 E57.42826
G1 X134.472 Y86.770 E57.47832
G1 X134.964 Y86.771 E57.57057
G1 X135.086 Y86.770 E57.59345
G1 X135.162 Y86.770 E57.60770
G1 X135.162 Y86.764 E57.60882
G1 X135.873 Y86.765 E57.74213
G1 X138.813 Y86.676 E58.29364
G1 X138.820 Y86.771 E58.31150
G1 X138.890 Y86.770 E58.32462
G1 X139.340 Y86.771 E58.40900
G1 X139.699 Y86.770 E58.47631
G1 X140.341 Y86.771 E58.59669
G1 X140.738 Y86.769 E58.67113
G1 X140.959 Y86.770 E58.71256
G1 X141.330 Y86.769 E58.78213
G1 X141.550 Y86.770 E58.82338
G1 X142.240 Y86.769 E58.95275
G1 X142.456 Y86.770 E58.99325
G1 X142.773 Y86.769 E59.05269
G1 X142.991 Y86.770 E59.09357
G1 X143.294 Y86.769 E59.15038
G1 X143.513 Y86.770 E59.19144
G1 X143.800 Y86.769 E59.24525
G1 X144.219 Y86.770 E59.32382
G1 X144.518 Y86.768 E59.37988
G1 X144.744 Y86.769 E59.42226
G1 X145.019 Y86.768 E59.47382
G1 X145.243 Y86.769 E59.51582
G1 X145.510 Y86.768 E59.56588
G1 X145.738 Y86.769 E59.60863
G1 X149.326 Y86.755 E60.28139
G1 X149.307 Y91.291 E61.13189
G1 X149.306 Y92.329 E61.32652
G1 X149.301 Y93.544 E61.55433
G1 X149.300 Y94.586 E61.74971
G1 X149.296 Y95.821 E61.98127
G1 X149.295 Y96.880 E62.17984
G1 X149.291 Y98.146 E62.41721
G1 X149.290 Y99.222 E62.61896
G1 X149.290 Y100.336 E62.82784
G1 X149.287 Y101.643 E63.07290
G1 X149.286 Y102.791 E63.28815
G1 X149.284 Y104.146 E63.54221
G1 X149.281 Y108.008 E64.26634
G1 X149.281 Y109.490 E64.54421
G1 X149.282 Y111.048 E64.83634
G1 X149.281 Y112.372 E65.08459
G1 X149.284 Y113.987 E65.38740
G1 X149.283 Y115.373 E65.64728
G1 X149.287 Y117.042 E65.96021
G1 X149.286 Y118.482 E66.23021
G1 X149.291 Y120.188 E66.55009
G1 X149.290 Y121.679 E66.82965
G1 X149.290 Y123.193 E67.11353
G1 X149.296 Y124.940 E67.44109
G1 X149.295 Y126.497 E67.73303
G1 X149.301 Y128.262 E68.06397
G1 X149.300 Y129.845 E68.36078
G1 X149.307 Y131.620 E68.69360
G1 X149.306 Y133.220 E68.99360
G1 X149.323 Y138.312 E69.94835
G1 X124.679 Y138.312 E74.56910
G1 X124.693 Y133.210 E75.52573
G1 X124.694 Y131.619 E75.82404
G1 X124.698 Y130.207 E76.08880
G1 X124.646 Y130.490 E76.14275
G1 X124.521 Y131.147 E76.26814
G1 X124.447 Y131.526 E76.34055
G1 X124.444 Y131.567 E76.34826
G1 X124.268 Y132.388 E76.50569
G1 X123.998 Y133.365 E76.69575
G1 X123.662 Y134.123 E76.85121
G1 X123.270 Y134.773 E76.99353
G1 X122.448 Y135.660 E77.22028
G1 X121.486 Y136.325 E77.43955
G1 X120.747 Y136.719 E77.59658
G1 X120.168 Y136.995 E77.71685
G1 X119.464 Y137.302 E77.86085
G1 X118.717 Y137.611 E78.01242
G1 X117.787 Y137.846 E78.19228
G1 X116.962 Y138.028 E78.35069
G1 X116.065 Y138.169 E78.52094
G1 X115.164 Y138.226 E78.69021
G1 X114.899 Y138.231 E78.73991
G1 X113.968 Y138.173 E78.91481
G1 X113.038 Y138.028 E79.09129
G1 X112.245 Y137.853 E79.24356
G1 X111.487 Y137.663 E79.39008
G1 X111.211 Y137.587 E79.44376
G1 X110.526 Y137.298 E79.58316
G1 X109.830 Y136.995 E79.72549
G1 X109.252 Y136.719 E79.84558
G1 X108.533 Y136.335 E79.99842
G1 X107.926 Y135.927 E80.13555
G1 X107.503 Y135.607 E80.23500
G1 X106.721 Y134.763 E80.45074
G1 X106.270 Y134.002 E80.61660
G1 X105.991 Y133.323 E80.75424
G1 X105.731 Y132.387 E80.93639
G1 X105.595 Y131.743 E81.05980
G1 X105.478 Y131.145 E81.17405
G1 X105.374 Y130.590 E81.27992
G1 X105.243 Y129.879 E81.41548
G1 X105.099 Y129.043 E81.57454
G1 X104.944 Y128.080 E81.75743
G1 X104.828 Y127.336 E81.89861
G1 X104.711 Y126.501 E82.05670
G1 X104.531 Y125.122 E82.31746
G1 X104.456 Y124.499 E82.43511
G1 X104.345 Y123.540 E82.61613
G1 X104.267 Y122.803 E82.75509
G1 X104.159 Y121.766 E82.95058
G1 X104.057 Y120.666 E83.15771
G1 X104.052 Y120.612 E83.16788
G1 X84.466 Y120.612 E86.84025
G1 X84.463 Y115.497 E87.79932
G1 X84.464 Y114.992 E87.89400
G1 X84.463 Y113.497 E88.17432
G1 X84.464 Y112.992 E88.26900
G1 X84.463 Y111.498 E88.54913
G1 X84.464 Y110.993 E88.64382
G1 X84.463 Y109.497 E88.92432
G1 X84.464 Y109.043 E89.00944
G1 X84.461 Y104.388 E89.88226
G10
G1 Z0.400
G0 F10500 X88.713 Y108.637
;TYPE:WALL-INNER
G1 Z0.300
G11
G1 F900 X91.764 Y108.637 E90.45432
G1 X91.764 Y114.436 E91.54163
G1 X97.638 Y114.436 E92.64301
G1 X97.638 Y108.637 E93.73032
G1 X100.689 Y108.637 E94.30238
G1 X100.688 Y109.499 E94.46401
G1 X100.689 Y110.997 E94.74488
G1 X100.688 Y111.499 E94.83901
G1 X100.689 Y112.996 E95.11969
G1 X100.688 Y113.498 E95.21382
G1 X100.689 Y114.996 E95.49469
G1 X100.688 Y115.498 E95.58882
G1 X100.689 Y116.363 E95.75101
G1 X88.712 Y116.363 E97.99669
G1 X88.712 Y115.501 E98.15832
G1 X88.713 Y115.000 E98.25226
G1 X88.712 Y113.501 E98.53332
G1 X88.713 Y113.000 E98.62726
G1 X88.712 Y111.502 E98.90813
G1 X88.713 Y111.001 E99.00207
G1 X88.712 Y109.502 E99.28313
G1 X88.713 Y108.637 E99.44532
G0 F10500 X88.087 Y108.012
;TYPE:WALL-OUTER
G1 F900 X92.389 Y108.012 E100.25194
G1 X92.389 Y113.811 E101.33926
G1 X97.013 Y113.811 E102.20626
G1 X97.013 Y108.012 E103.29357
G1 X101.314 Y108.012 E104.10001
G1 X101.313 Y116.988 E105.78301
G1 X88.088 Y116.988 E108.26269
G1 X88.087 Y108.012 E109.94570
G0 F10500 X88.967 Y108.855
;TYPE:SKIN
G1 F900 X91.544 Y111.432 E110.62903
G0 F10500 X91.544 Y110.549
G1 F900 X89.851 Y108.855 E111.07808
G0 F10500 X90.735 Y108.855
G1 F900 X91.544 Y109.665 E111.29273
G10
G1 Z0.400
G0 F10500 X88.931 Y109.703
G1 Z0.300
G11
G1 F900 X91.544 Y112.316 E111.98561
G0 F10500 X91.544 Y113.200
G1 F900 X88.931 Y110.587 E112.67849
G0 F10500 X88.931 Y111.471
G1 F900 X91.544 Y114.084 E113.37136
G0 F10500 X92.114 Y114.654
G1 F900 X93.603 Y116.142 E113.76606
G0 F10500 X94.487 Y116.142
G1 F900 X92.998 Y114.654 E114.16076
G0 F10500 X93.882 Y114.654
G1 F900 X95.371 Y116.142 E114.55546
G0 F10500 X96.254 Y116.142
G1 F900 X94.766 Y114.654 E114.95002
G0 F10500 X95.650 Y114.654
G1 F900 X97.138 Y116.142 E115.34459
G0 F10500 X98.022 Y116.142
G1 F900 X96.534 Y114.654 E115.73915
G0 F10500 X97.418 Y114.654
G1 F900 X98.906 Y116.142 E116.13372
G0 F10500 X99.790 Y116.142
G1 F900 X97.857 Y114.209 E116.64628
G0 F10500 X97.857 Y113.325
G1 F900 X100.469 Y115.938 E117.33903
G0 F10500 X100.469 Y115.054
G1 F900 X97.857 Y112.441 E118.03177
G0 F10500 X97.857 Y111.558
G1 F900 X100.469 Y114.170 E118.72438
G0 F10500 X100.469 Y113.286
G1 F900 X97.857 Y110.674 E119.41699
G0 F10500 X97.857 Y109.790
G1 F900 X100.469 Y112.403 E120.10974
G0 F10500 X100.469 Y111.519
G1 F900 X97.857 Y108.906 E120.80248
G0 F10500 X98.690 Y108.855
G1 F900 X100.469 Y110.635 E121.27434
G0 F10500 X100.469 Y109.751
G1 F900 X99.574 Y108.855 E121.51180
G10
G1 Z0.400
G0 F10500 X92.719 Y116.142
G1 Z0.300
G11
G1 F900 X88.931 Y112.355 E122.51611
G0 F10500 X88.930 Y113.238
G1 F900 X91.835 Y116.142 E123.28628
G0 F10500 X90.951 Y116.142
G1 F900 X88.930 Y114.122 E123.82205
G0 F10500 X88.930 Y115.005
G1 F900 X90.067 Y116.142 E124.12354
G0 F10500 X89.183 Y116.142
G1 F900 X88.930 Y115.889 E124.19063
G10
G1 Z0.400
G0 F10500 X107.855 Y115.054
;TYPE:WALL-INNER
G1 Z0.300
G11
G1 F900 X107.691 Y112.728 E124.62783
G1 X107.537 Y110.378 E125.06940
G1 X107.398 Y108.045 E125.50762
G1 X107.277 Y105.761 E125.93647
G1 X107.229 Y104.733 E126.12943
G1 X107.195 Y104.029 E126.26158
G1 X122.805 Y104.029 E129.18846
G1 X122.772 Y104.731 E129.32023
G1 X122.722 Y105.760 E129.51339
G1 X122.659 Y106.964 E129.73945
G1 X122.600 Y108.042 E129.94188
G1 X122.529 Y109.280 E130.17439
G1 X122.462 Y110.378 E130.38064
G1 X122.382 Y111.632 E130.61625
G1 X122.309 Y112.729 E130.82239
G1 X122.146 Y115.056 E131.25977
G1 X121.974 Y117.287 E131.67932
G1 X121.890 Y118.256 E131.86169
G1 X121.794 Y119.402 E132.07732
G1 X121.613 Y121.345 E132.44321
G1 X121.508 Y122.358 E132.63417
G1 X121.433 Y123.069 E132.76822
G1 X121.325 Y124.002 E132.94432
G1 X121.255 Y124.590 E133.05535
G1 X121.145 Y125.442 E133.21643
G1 X120.969 Y126.709 E133.45627
G1 X120.861 Y127.416 E133.59037
G1 X120.754 Y128.094 E133.71907
G1 X120.606 Y128.960 E133.88380
G1 X120.468 Y129.712 E134.02715
G1 X120.349 Y130.344 E134.14774
G1 X120.232 Y130.941 E134.26180
G1 X120.141 Y131.372 E134.34440
G1 X119.987 Y131.926 E134.45221
G1 X119.883 Y132.160 E134.50022
G1 X119.856 Y132.207 E134.51039
G1 X119.650 Y132.428 E134.56703
G1 X119.268 Y132.693 E134.65421
G1 X118.827 Y132.927 E134.74781
G1 X117.812 Y133.387 E134.95676
G1 X117.374 Y133.568 E135.04562
G1 X116.822 Y133.708 E135.15240
G1 X116.179 Y133.850 E135.27586
G1 X115.597 Y133.941 E135.38631
G1 X114.996 Y133.979 E135.49923
G1 X114.431 Y133.945 E135.60536
G1 X113.826 Y133.851 E135.72015
G1 X113.208 Y133.714 E135.83884
G1 X112.600 Y133.562 E135.95635
G1 X111.588 Y133.126 E136.16296
G1 X110.725 Y132.688 E136.34442
G1 X110.366 Y132.446 E136.42560
G1 X110.148 Y132.211 E136.48570
G1 X110.080 Y132.096 E136.51075
G1 X110.017 Y131.943 E136.54178
G1 X109.863 Y131.386 E136.65013
G1 X109.757 Y130.887 E136.74578
G1 X109.651 Y130.344 E136.84952
G1 X109.551 Y129.812 E136.95101
G1 X109.426 Y129.130 E137.08102
G1 X109.289 Y128.339 E137.23154
G1 X109.140 Y127.414 E137.40721
G1 X109.031 Y126.709 E137.54097
G1 X108.921 Y125.925 E137.68941
G1 X108.746 Y124.588 E137.94224
G1 X108.675 Y124.003 E138.05273
G1 X108.568 Y123.068 E138.22919
G1 X108.493 Y122.359 E138.36286
G1 X108.387 Y121.344 E138.55421
G1 X108.288 Y120.273 E138.75588
G1 X108.205 Y119.401 E138.92012
G1 X108.111 Y118.257 E139.13534
G1 X108.027 Y117.285 E139.31827
G1 X107.935 Y116.088 E139.54337
G1 X107.855 Y115.054 E139.73783
G10
G1 Z0.400
G0 F10500 X111.085 Y118.468
G1 Z0.300
G11
G1 F900 X110.385 Y120.165 E140.08202
G1 X110.386 Y122.000 E140.42608
G1 X111.090 Y123.696 E140.77039
G1 X112.389 Y124.993 E141.11458
G1 X114.086 Y125.694 E141.45884
G1 X115.921 Y125.693 E141.80290
G1 X117.617 Y124.989 E142.14721
G1 X118.913 Y123.689 E142.49140
G1 X119.611 Y121.999 E142.83423
G1 X119.615 Y121.740 E142.88280
G1 X119.613 Y120.157 E143.17962
G1 X118.909 Y118.461 E143.52392
G1 X117.609 Y117.164 E143.86824
G1 X115.912 Y116.463 E144.21251
G1 X114.078 Y116.465 E144.55638
G1 X112.383 Y117.169 E144.90052
G1 X111.085 Y118.468 E145.24483
G10
G1 Z0.400
G0 F10500 X113.750 Y113.456
G1 Z0.300
G11
G1 F900 X114.563 Y113.791 E145.40971
G1 X115.441 Y113.791 E145.57433
G1 X116.254 Y113.453 E145.73942
G1 X116.875 Y112.832 E145.90408
G1 X117.212 Y112.019 E146.06910
G1 X117.211 Y111.138 E146.23429
G1 X116.874 Y110.326 E146.39913
G1 X116.251 Y109.703 E146.56433
G1 X115.437 Y109.368 E146.72937
G1 X114.559 Y109.368 E146.89400
G1 X113.745 Y109.706 E147.05926
G1 X113.124 Y110.329 E147.22419
G1 X112.788 Y111.140 E147.38878
G1 X112.788 Y112.022 E147.55416
G1 X113.127 Y112.835 E147.71932
G1 X113.750 Y113.456 E147.88425
G10
G1 Z0.400
